X:1     
T:I Live not Where I Love 
S:Robert Barratt, Piddletown, Dorset, Sept 1905
B:Marrowbones, ed. Frank Purslow. EFDS Publications, 1965    
Z:Hammond D.219 
F:http://www.folkinfo.org/songs      
M:4/4     
L:1/8     
K:Cmix
z4 z2 c2 |c3 B B2 A2 |c3 F/F/ E2 F2 |GA B2 cd c2 |
w:Come all you maids that live at a dist-ance Man-y a mi-le from 
cB A2 G3 c |c3 B B2 A2 |c2 FF E2 F2 |GA B2 cd c2 |
w:off_ your swain Come and as-sist me this ve-ry mo-ment For_ to pass_ a-
cB G2 F4 |B2 A2 B2 c2 |d2 f2 e2 c2 |f3 c c2 A2 |
w:way_ some time. Sing-ing sweet-ly and com-plete-ly Songs of plea-sure 
B2 c2 G2 cc |c3 B B2 A2 |c3 F E2 F2 |GA B2 cd c2 |
w:and of love. For my heart is with him al-to-geth-er Though_ I live_ not 
cA G2 F2 z2 |]
w:where_ I love.